build/Karasa-Jaga/scalable/status/network-vpn-symbolic.svg

<svg height="16" width="16" xmlns="http://www.w3.org/2000/svg"><g fill="#bebebe"><path d="m4 5h8v6h-8z"/><path d="m8 1c-1.645 0-3 1.355-3 3v2 1h1 4 1v-1-2c0-1.645-1.355-3-3-3zm0 2c.56413 0 1 .43588 1 1v1h-2v-1c0-.56412.43587-1 1-1z"/><path d="m6 13v1h-6v1h6v1h4v-1h6v-1h-6v-1zm1 1h2v1h-2z"/><path d="m7.5 10.690493v2.309507h1v-2.309507z" stroke-width=".792656"/></g></svg>

<?xml version="1.0" encoding="UTF-8" standalone="no"?>
<!-- Created with Inkscape (http://www.inkscape.org/) -->

<svg
   xmlns:dc="http://purl.org/dc/elements/1.1/"
   xmlns:cc="http://creativecommons.org/ns#"
   xmlns:rdf="http://www.w3.org/1999/02/22-rdf-syntax-ns#"
   xmlns:svg="http://www.w3.org/2000/svg"
   xmlns="http://www.w3.org/2000/svg"
   xmlns:sodipodi="http://sodipodi.sourceforge.net/DTD/sodipodi-0.dtd"
   xmlns:inkscape="http://www.inkscape.org/namespaces/inkscape"
   id="svg7384"
   height="16"
   width="16"
   version="1.1"
   sodipodi:docname="network-vpn-symbolic.svg"
   inkscape:version="0.92.2 (unknown)">
  <defs
     id="defs12" />
  <sodipodi:namedview
     pagecolor="#ffffff"
     bordercolor="#666666"
     borderopacity="1"
     objecttolerance="10"
     gridtolerance="10"
     guidetolerance="10"
     inkscape:pageopacity="0"
     inkscape:pageshadow="2"
     inkscape:window-width="1366"
     inkscape:window-height="711"
     id="namedview10"
     showgrid="false"
     inkscape:zoom="14.75"
     inkscape:cx="-0.47457627"
     inkscape:cy="8"
     inkscape:window-x="0"
     inkscape:window-y="0"
     inkscape:window-maximized="1"
     inkscape:current-layer="svg7384" />
  <metadata
     id="metadata90">
    <rdf:RDF>
      <cc:Work
         rdf:about="">
        <dc:format>image/svg+xml</dc:format>
        <dc:type
           rdf:resource="http://purl.org/dc/dcmitype/StillImage" />
        <dc:title>Gnome Symbolic Icon Theme</dc:title>
      </cc:Work>
    </rdf:RDF>
  </metadata>
  <title
     id="title9167">Gnome Symbolic Icon Theme</title>
  <rect
     x="4"
     y="5"
     width="8"
     height="6"
     ry="0"
     style="color:#bebebe;fill:#bebebe"
     id="rect13312" />
  <path
     inkscape:connector-curvature="0"
     d="M 8,1 C 6.355,1 5,2.355 5,4 v 2 1 h 1 4 1 V 6 4 C 11,2.355 9.645,1 8,1 Z M 8,3 C 8.56413,3 9,3.43588 9,4 V 5 H 7 V 4 C 7,3.43588 7.43587,3 8,3 Z"
     style="color:#bebebe;text-indent:0;text-transform:none;fill:#bebebe"
     id="path13314" />
  <g
     id="g859">
    <path
       sodipodi:nodetypes="cccccccccccccccccc"
       id="rect4197"
       style="color:#000000;isolation:auto;mix-blend-mode:normal;solid-color:#000000;fill:#bebebe;color-rendering:auto;image-rendering:auto;shape-rendering:auto"
       d="m 6,13 v 1 H 0 v 1 h 6 v 1 h 4 v -1 h 6 v -1 h -6 v -1 z m 1,1 h 2 v 1 H 7 Z"
       inkscape:connector-curvature="0" />
    <path
       inkscape:connector-curvature="0"
       id="path852"
       d="M 7.5,10.690493 V 13 h 1 v -2.309507 z"
       style="color:#000000;isolation:auto;mix-blend-mode:normal;solid-color:#000000;fill:#bebebe;stroke-width:0.79265612;color-rendering:auto;image-rendering:auto;shape-rendering:auto" />
  </g>
</svg>
